X: 86
T: Blackeyed Biddy
C: anon., words: Lina Sandell
O: Ireland
B: Francis O'Neill: "The Dance Music of Ireland" (1907) no. 86
R: Double jig
Z: Transcribed by Frank Nordberg - http://www.musicaviva.com
F: http://www.musicaviva.com/abc/tunes/ireland/oneill-1001/oneill-1001-008
6.abc
M: 6/8
L: 1/8
K: A
E|ABA Ace|eac B2A|cBA d2B|cAA aec|ABA Ace|eac B2A|cBA d2B|cAA A2:|
|:a|e2a f2a|e2a fec|efg aec|eac ecA|cBc dcd|eac B2A|cBA d2B|cAA A2:|
W:
W:
W: From Musica Viva - http://www.musicaviva.com
W: the Internet center for free sheet music downloads.


